packages/match-icons/product/svg/verified-by.svg

<svg fill="none" height="32" viewBox="0 0 32 32" width="32" xmlns="http://www.w3.org/2000/svg" xmlns:xlink="http://www.w3.org/1999/xlink"><clipPath id="a"><path d="m0 0h32v32h-32z"/></clipPath><g clip-path="url(#a)"><path d="m21 32h-10c-2.91738 0-5.71527-1.159-7.77817-3.2219s-3.22183-4.8607-3.22183-7.7781v-10c0-2.91741 1.15893-5.7153 3.22183-7.7782s4.86079-3.22182996 7.77817-3.22182996h10c2.091-.00499407 4.1392.59211996 5.9 1.71999996.3177.20119.5859.47146.7847.79069.1987.31922.3229.67916.3633 1.05304.0404.37387-.0041.75203-.1302 1.10632-.126.35429-.3304.67558-.5978.93995l-11.61 11.60003c-.0926.0945-.2031.1696-.3249.2211-.1219.0515-.2528.0783-.3851.0789-.1323-.0006-.2632-.0274-.3851-.0789-.1218-.0515-.2323-.1266-.3249-.2211l-2.62-2.62c-.0935-.0916-.2191-.143-.35-.143s-.2565.0514-.35.143l-1.88 1.88c-.08931.0946-.13906.2198-.13906.35 0 .1301.04975.2553.13906.35l4.5 4.5c.3747.3725.8816.5816 1.41.5816s1.0353-.2091 1.41-.5816l11.32-11.32c.3496-.35056.7955-.58939 1.281-.68622.4856-.09683.989-.04732 1.4463.14227.4574.18959.8482.51075 1.1228.92265s.4208.8962.4199 1.3913v8.88c0 2.9174-1.1589 5.7152-3.2218 7.7781s-4.8608 3.2219-7.7782 3.2219zm-10-30.00003c-2.38695 0-4.67613.94821-6.36396 2.63604s-2.63604 3.97701-2.63604 6.36399v10c0 2.3869.94821 4.6761 2.63604 6.3639 1.68783 1.6879 3.97701 2.6361 6.36396 2.6361h10c2.3869 0 4.6761-.9482 6.364-2.6361 1.6878-1.6878 2.636-3.977 2.636-6.3639v-8.88c.001-.0965-.0271-.191-.0806-.2713s-.13-.1426-.2194-.1787c-.0891-.0421-.1892-.055-.2861-.0371s-.1857.0659-.2539.1371l-11.33 11.32c-.7602.732-1.7746 1.141-2.83 1.141s-2.0698-.409-2.83-1.141l-4.5-4.5c-.23402-.2316-.4198-.5072-.54659-.8111-.12678-.3038-.19207-.6297-.19207-.9589s.06529-.6552.19207-.959c.12679-.3038.31257-.5795.54659-.811l1.88-1.88c.23223-.2328.5081-.4176.8118-.5436.3038-.126.6294-.1909.9582-.1909s.6544.0649.9582.1909c.3037.126.5796.3108.8118.5436l1.91 1.9 10.9-10.89003c.0522-.05257.0921-.11608.1167-.18595.0247-.06986.0335-.14433.0258-.21801-.0076-.07369-.0316-.14475-.0701-.20806-.0384-.0633-.0905-.11726-.1524-.15798-1.4389-.92088-3.1116-1.41019-4.82-1.41z" fill="#394762"/></g></svg>

<svg width="32" height="32" viewBox="0 0 32 32" fill="none" xmlns="http://www.w3.org/2000/svg">
<g clip-path="url(#clip0)">
<path d="M21 32H11C8.08262 32 5.28473 30.841 3.22183 28.7781C1.15893 26.7152 0 23.9174 0 21L0 11C0 8.08259 1.15893 5.2847 3.22183 3.2218C5.28473 1.1589 8.08262 -2.99633e-05 11 -2.99633e-05H21C23.091 -0.00502403 25.1392 0.59209 26.9 1.71997C27.2177 1.92116 27.4859 2.19143 27.6847 2.51066C27.8834 2.82988 28.0076 3.18982 28.048 3.5637C28.0884 3.93757 28.0439 4.31573 27.9178 4.67002C27.7918 5.02431 27.5874 5.3456 27.32 5.60997L15.71 17.21C15.6174 17.3045 15.5069 17.3796 15.3851 17.4311C15.2632 17.4826 15.1323 17.5094 15 17.51V17.51C14.8677 17.5094 14.7368 17.4826 14.6149 17.4311C14.4931 17.3796 14.3826 17.3045 14.29 17.21L11.67 14.59C11.5765 14.4984 11.4509 14.447 11.32 14.447C11.1891 14.447 11.0635 14.4984 10.97 14.59L9.09 16.47C9.00069 16.5646 8.95094 16.6898 8.95094 16.82C8.95094 16.9501 9.00069 17.0753 9.09 17.17L13.59 21.67C13.9647 22.0425 14.4716 22.2516 15 22.2516C15.5284 22.2516 16.0353 22.0425 16.41 21.67L27.73 10.35C28.0796 9.99944 28.5255 9.76061 29.011 9.66378C29.4966 9.56695 30 9.61646 30.4573 9.80605C30.9147 9.99564 31.3055 10.3168 31.5801 10.7287C31.8547 11.1406 32.0009 11.6249 32 12.12V21C32 23.9174 30.8411 26.7152 28.7782 28.7781C26.7153 30.841 23.9174 32 21 32ZM11 1.99997C8.61305 1.99997 6.32387 2.94818 4.63604 4.63601C2.94821 6.32384 2 8.61302 2 11V21C2 23.3869 2.94821 25.6761 4.63604 27.3639C6.32387 29.0518 8.61305 30 11 30H21C23.3869 30 25.6761 29.0518 27.364 27.3639C29.0518 25.6761 30 23.3869 30 21V12.12C30.001 12.0235 29.9729 11.929 29.9194 11.8487C29.8659 11.7684 29.7894 11.7061 29.7 11.67C29.6109 11.6279 29.5108 11.615 29.4139 11.6329C29.317 11.6508 29.2282 11.6988 29.16 11.77L17.83 23.09C17.0698 23.822 16.0554 24.231 15 24.231C13.9446 24.231 12.9302 23.822 12.17 23.09L7.67 18.59C7.43598 18.3584 7.2502 18.0828 7.12341 17.7789C6.99663 17.4751 6.93134 17.1492 6.93134 16.82C6.93134 16.4908 6.99663 16.1648 7.12341 15.861C7.2502 15.5572 7.43598 15.2815 7.67 15.05L9.55 13.17C9.78223 12.9372 10.0581 12.7524 10.3618 12.6264C10.6656 12.5004 10.9912 12.4355 11.32 12.4355C11.6488 12.4355 11.9744 12.5004 12.2782 12.6264C12.5819 12.7524 12.8578 12.9372 13.09 13.17L15 15.07L25.9 4.17997C25.9522 4.1274 25.9921 4.06389 26.0167 3.99402C26.0414 3.92416 26.0502 3.84969 26.0425 3.77601C26.0349 3.70232 26.0109 3.63126 25.9724 3.56795C25.934 3.50465 25.8819 3.45069 25.82 3.40997C24.3811 2.48909 22.7084 1.99978 21 1.99997H11Z" fill="#394762"/>
</g>
<defs>
<clipPath id="clip0">
<rect width="32" height="32" fill="white"/>
</clipPath>
</defs>
</svg>
